!!!COM: Schiørring, Niels
!!!CDT: 1743-1798
!!!OPR@@DA: Choral-Bog
!!!ONM: 58
!!!OTL@@DA: Kom Gud Skaber o Hellig Aand
**kern	**fb	**kern	**kern	**kern	**kern	**kern	**kern	**kern
*part6	*part6	*part6	*part5	*part5	*part4	*part3	*part2	*part1
*staff8	*	*staff7	*staff6	*staff5	*staff4	*staff3	*staff2	*staff1
*clefF4	*	*clefC1	*clefF4	*clefC1	*clefF4	*clefC4	*clefC3	*clefC1
*k[]	*	*k[]	*k[]	*k[]	*k[]	*k[]	*k[]	*k[]
*M4/4	*	*M4/4	*M4/4	*M4/4	*M4/4	*M4/4	*M4/4	*M4/4
*met(c)	*	*met(c)	*met(c)	*met(c)	*met(c)	*met(c)	*met(c)	*met(c)
*MM180	*	*MM180	*MM180	*MM180	*MM180	*MM180	*MM180	*MM180
*	*	*	*^	*^	*	*	*	*
2G	.	2g	2B	2G	2g	2d	2G	2B	2d	2g
=1	=1	=1	=1	=1	=1	=1	=1	=1	=1	=1
2F#X	5	2a	2c	2F#X	2a	1d	2F#X	2c	2d	2a
2G	.	2g	2B	2G	2g	.	2G	2B	2d	2g
=2	=2	=2	=2	=2	=2	=2	=2	=2	=2	=2
2D	8 #	2f#X	2A	2D	2f#X	4d	2D	2A	(4d	2f#X
2E	7	2g	2G	2E	2g	2B	2E	2G	2B	2g
=3	=3	=3	=3	=3	=3	=3	=3	=3	=3	=3
2C	.	2cc	2G	2C	2cc	4e	2C	2G	(4e	2cc
*	*	*	*	*	*v	*v	*	*	*	*
.	.	.	.	.	.	.	.	2c)	.
2G	4	2dd	2G	2G	2dd	2G	2G	.	2dd
=4	=4	=4	=4	=4	=4	=4	=4	=4	=4
*	*	*	*	*	*^	*	*	*	*
2C	3	2cc	2G	2C	2cc	2e	2C	2G	2e	2cc
2AA	.	2cc	2ryy	2AA	2c	2e	2AA	2c	2e	2cc
=5	=5	=5	=5	=5	=5	=5	=5	=5	=5	=5
2C	.	2g	1ryy	2C	2c	2e	2C	2c	2e	2g
2F	.	2a	.	2F	2c	2f	2F	2c	2f	2a
=6	=6	=6	=6	=6	=6	=6	=6	=6	=6	=6
2E	6	2cc	1ryy	2E	2e	2g	2E	2c	2g	2cc
2D	6	2dd	.	2D	2f	2b	2D	2B	2f	2dd
=7	=7	=7	=7	=7	=7	=7	=7	=7	=7	=7
2C	.	2ee	1ryy	2C	2g	2cc	2C	2c	2g	2ee
*	*	*	*	*	*	*	*^	*	*	*
2FF#X	7 5	2ee	.	2FF#X	[2a	[2cc	2F#X	2FF#X	[2c	[2a	2ee
=8	=8	=8	=8	=8	=8	=8	=8	=8	=8	=8	=8
2GG	9 4	2dd	1ryy	2GG	4a]	4cc]	2G	2GG	4c]	(4a]	2dd
*	*	*	*	*	*	*	*v	*v	*	*	*
2Fni	2	2dd	.	2Fni	2g	2b	2Fni	2B	2g	2dd
=9	=9	=9	=9	=9	=9	=9	=9	=9	=9	=9
1E	6	2ee	2ryy	2E	2g	2cc	2E	2c	2g	2ee
*	*	*	*	*	*	*^	*	*	*	*
.	.	2cc	2c	2E	2cc	2g	2e\	2E	2c	2g	2cc
=10	=10	=10	=10	=10	=10	=10	=10	=10	=10	=10	=10
2F	.	2a	1c	2F	2a	2f	1c\	2F	2c	2f	2a
2C	.	2g	.	2C	2g	2e	.	2C	2c	2e	2g
=11	=11	=11	=11	=11	=11	=11	=11	=11	=11	=11	=11
2F	.	2a	2c	2F	2a	1f	1r	2F	2c	2f	2a
2D	6	2b	2d	2D	2b	.	.	2D	2d	2f	2b
=12	=12	=12	=12	=12	=12	=12	=12	=12	=12	=12	=12
2C	.	2cc	2G	2C	2cc	2e	1r	2C	2G	2e	2cc
2BB	6	2g	2ryy	2BB	2d	2d	.	2BB	2d	2d	2g
=13	=13	=13	=13	=13	=13	=13	=13	=13	=13	=13	=13
2AA	.	2cc	1ryy	2AA	2c	2e	1r	2AA	2c	2e	2cc
2C	6	2a	.	2C	2c	2e	.	2C	2c	2e	2a
=14	=14	=14	=14	=14	=14	=14	=14	=14	=14	=14	=14
2D	#	2f#X	2A	2D	2f#X	2d	1r	2D	2A	2d	2f#X
2C	4	2a	4ryy	2C	2d	2f#	.	2C	(4F#X	(4d	2a
.	.	.	4ryy	.	.	.	.	.	4A)	4f#X)	.
=15	=15	=15	=15	=15	=15	=15	=15	=15	=15	=15	=15
4BB	6	2g	4ryy	4BB	4d	4g	1r	(4BB	(4d	(4g	2g
4C	6 5	.	4A	4C	4ryy	4e	.	4C)	4A)	4e)	.
2D	#	2f#X	2A	2D	2f#X	2d	.	2D	2A	2d	2f#X
=16	=16	=16	=16	=16	=16	=16	=16	=16	=16	=16	=16
2GG	.	2g	2G	2GG	2g	2d	2B\	2GG	2B	2d	2g
*	*	*	*v	*v	*	*	*	*	*	*	*
*	*	*	*	*v	*v	*v	*	*	*	*
==	==	==	==	==	==	==	==	==
*-	*-	*-	*-	*-	*-	*-	*-	*-
!!!system-decoration: {(s1,s2,s3,s4)}{(s5,s6)}{(s7,s8)}
!!!RDF**kern: i = editorial accidental
!!!RDF**kern: > = above
!!!RDF**kern: < = below
!!!AGN: chorale
!!!EED: Derek Remeš
!!!EED2: Victor Phan
!!!END: 2023/11/28
!!!ENC: Wolfgang Drescher
!!!EEV: 2023/11/29
!!!title: @{ONM}. @{OTL}